!!!OTL: ?
!! From: "Folk Songs of the Southern Appalachians;
!! As Sung by Jean Ritchie"  2nd Edition.
!! University of Kentucky Press, 1997.
**kern
*clefG2
*k[f#c#]
*D:
*M3/4
{8a
=1
8a
16d
16d
16f#
8.f#
8a
(16f#
16e)
=2
8d
8c#
4.d}
{8a
=3
8a
8ccn
4.dd
8cc
=4
16ee
16dd
8ccn
4.a}
{8a
=5
16a
16a
8ccn
4.dd
16cc
16cc
=6
8ee
8dd
8a}
8r
{4a
=7
8a
8d
(4f#
8a)
(16a
16f#)
=8
8d
8c#
4d}
8r
==
*-
